X: 12387
T: Fanny Dillon
R: waltz
M: 3/4
K: Edorian
Bd|e2 ed BA|G2 G>A G/A/G/E/|D2 BA Bd|ef e2 (3e(3d(3B|
d>e ed BA|G>A G/A/G/E/ DE|GA AG FE|E4 dB|
BA GE GA|Bc dB e/d/e/f/|gf e2 (3f(3e(3d|
B2 GA Bc|dB ef gf|ed BG Bd|eB AG FE|E4||
GA|B2 BA GE|G>A G/A/G/E/ B2|G>A B/A/B/c/ dA|
Be e2 ef|g2 gf fe|e2 ef ed|B2 GA Bc|
d2 Bc Bd|e2 ed Be|dB B/A/G AB|G2 G>A G/A/G/E/|
D2 GA Bc|dB ef gf|ed BG Bd|eB AG FE|E4||

